**harm	**harte	**timestamp	**phrase	**leadinstrument	**kern
*M4/4	*M4/4	*	*	*	*
*E:	*E:	*	*	*	*E:
1r;	N	0	.	r	1r;
=1	=1	=1	=1	=1	=1
*>A_intro	*>A_intro	*>A_intro	*>A_intro	*>A_intro	*>A_intro
1I	E:maj	0.302	newline	guitar	1E 1g# 1b
=2	=2	=2	=2	=2	=2
1I	E:maj	2.378	.	guitar	1E 1g# 1b
=3	=3	=3	=3	=3	=3
*>A_theme	*>A_theme	*>A_theme	*>A_theme	*>A_theme	*>A_theme
1I	E:maj	4.454	newline	voice	1E 1g# 1b
=4	=4	=4	=4	=4	=4
1I	E:maj	6.396	.	voice	1E 1g# 1b
=5	=5	=5	=5	=5	=5
1I	E:maj	8.338	.	voice	1E 1g# 1b
=6	=6	=6	=6	=6	=6
1I	E:maj	10.28	.	voice	1E 1g# 1b
=7	=7	=7	=7	=7	=7
1I	E:maj	12.222	newline	voice	1E 1g# 1b
=8	=8	=8	=8	=8	=8
1I	E:maj	14.15	.	voice	1E 1g# 1b
=9	=9	=9	=9	=9	=9
1I	E:maj	16.079	.	voice	1E 1g# 1b
=10	=10	=10	=10	=10	=10
1I	E:maj	18.007	.	voice	1E 1g# 1b
=11	=11	=11	=11	=11	=11
1IVm7	A:7	19.936	newline	voice	1A 1cc# 1ee 1gg#
=12	=12	=12	=12	=12	=12
1IVm7	A:7	21.903	.	voice	1A 1cc# 1ee 1gg#
=13	=13	=13	=13	=13	=13
1I	E:maj	23.871	.	voice	1E 1g# 1b
=14	=14	=14	=14	=14	=14
1I	E:maj	25.838	.	voice	1E 1g# 1b
=15	=15	=15	=15	=15	=15
1V7	B:7	27.806	newline	voice	1B 1dd# 1ff# 1aa
=16	=16	=16	=16	=16	=16
1IVm7	A:7	29.756	.	voice	1A 1cc# 1ee 1gg#
=17	=17	=17	=17	=17	=17
1I	E:maj	31.707	.	voice	1E 1g# 1b
=18	=18	=18	=18	=18	=18
1I	E:maj	33.657	.	voice	1E 1g# 1b
=19	=19	=19	=19	=19	=19
*>A_theme	*>A_theme	*>A_theme	*>A_theme	*>A_theme	*>A_theme
1I	E:maj	35.607	newline	voice	1E 1g# 1b
=20	=20	=20	=20	=20	=20
1I	E:maj	37.589	.	voice	1E 1g# 1b
=21	=21	=21	=21	=21	=21
1I	E:maj	39.571	.	voice	1E 1g# 1b
=22	=22	=22	=22	=22	=22
1I	E:maj	41.553	.	voice	1E 1g# 1b
=23	=23	=23	=23	=23	=23
1I	E:maj	43.535	newline	voice	1E 1g# 1b
=24	=24	=24	=24	=24	=24
1I	E:maj	45.503	.	voice	1E 1g# 1b
=25	=25	=25	=25	=25	=25
1I	E:maj	47.471	.	voice	1E 1g# 1b
=26	=26	=26	=26	=26	=26
1I	E:maj	49.438	.	voice	1E 1g# 1b
=27	=27	=27	=27	=27	=27
1IVm7	A:7	51.406	newline	voice	1A 1cc# 1ee 1gg#
=28	=28	=28	=28	=28	=28
1IVm7	A:7	53.39	.	voice	1A 1cc# 1ee 1gg#
=29	=29	=29	=29	=29	=29
1I	E:maj	55.374	.	voice	1E 1g# 1b
=30	=30	=30	=30	=30	=30
1I	E:maj	57.358	.	voice	1E 1g# 1b
=31	=31	=31	=31	=31	=31
1V7	B:7	59.342	newline	voice	1B 1dd# 1ff# 1aa
=32	=32	=32	=32	=32	=32
1IVm7	A:7	61.314	.	voice	1A 1cc# 1ee 1gg#
=33	=33	=33	=33	=33	=33
1I	E:maj	63.286	.	voice	1E 1g# 1b
=34	=34	=34	=34	=34	=34
1I	E:maj	65.258	.	voice	1E 1g# 1b
=35	=35	=35	=35	=35	=35
*>A_interlude	*>A_interlude	*>A_interlude	*>A_interlude	*>A_interlude	*>A_interlude
1I	E:maj	67.23	newline	choir	1E 1g# 1b
=36	=36	=36	=36	=36	=36
1I	E:maj	69.216	.	choir	1E 1g# 1b
=37	=37	=37	=37	=37	=37
1I	E:maj	71.203	.	choir	1E 1g# 1b
=38	=38	=38	=38	=38	=38
1I	E:maj	73.189	.	choir	1E 1g# 1b
=39	=39	=39	=39	=39	=39
1IVm7	A:7	75.176	newline	choir	1A 1cc# 1ee 1gg#
=40	=40	=40	=40	=40	=40
1IVm7	A:7	77.125	.	choir	1A 1cc# 1ee 1gg#
=41	=41	=41	=41	=41	=41
1I	E:maj	79.075	.	choir	1E 1g# 1b
=42	=42	=42	=42	=42	=42
1I	E:maj	81.024	.	choir	1E 1g# 1b
=43	=43	=43	=43	=43	=43
1V7	B:7	82.974	newline	choir	1B 1dd# 1ff# 1aa
=44	=44	=44	=44	=44	=44
1IVm7	A:7	84.944	.	choir	1A 1cc# 1ee 1gg#
=45	=45	=45	=45	=45	=45
1I	E:maj	86.914	.	choir	1E 1g# 1b
=46	=46	=46	=46	=46	=46
1I	E:maj	88.884	.	choir	1E 1g# 1b
=47	=47	=47	=47	=47	=47
*>A_theme	*>A_theme	*>A_theme	*>A_theme	*>A_theme	*>A_theme
1I	E:maj	90.854	newline	voice	1E 1g# 1b
=48	=48	=48	=48	=48	=48
1I	E:maj	92.826	.	voice	1E 1g# 1b
=49	=49	=49	=49	=49	=49
1I	E:maj	94.798	.	voice	1E 1g# 1b
=50	=50	=50	=50	=50	=50
1I	E:maj	96.77	.	voice	1E 1g# 1b
=51	=51	=51	=51	=51	=51
1I	E:maj	98.742	newline	voice	1E 1g# 1b
=52	=52	=52	=52	=52	=52
1I	E:maj	100.722	.	voice	1E 1g# 1b
=53	=53	=53	=53	=53	=53
1I	E:maj	102.702	.	voice	1E 1g# 1b
=54	=54	=54	=54	=54	=54
1I	E:maj	104.682	.	voice	1E 1g# 1b
=55	=55	=55	=55	=55	=55
1IVm7	A:7	106.662	newline	voice	1A 1cc# 1ee 1gg#
=56	=56	=56	=56	=56	=56
1IVm7	A:7	108.634	.	voice	1A 1cc# 1ee 1gg#
=57	=57	=57	=57	=57	=57
1I	E:maj	110.606	.	voice	1E 1g# 1b
=58	=58	=58	=58	=58	=58
1I	E:maj	112.578	.	voice	1E 1g# 1b
=59	=59	=59	=59	=59	=59
1V7	B:7	114.55	newline	voice	1B 1dd# 1ff# 1aa
=60	=60	=60	=60	=60	=60
1IVm7	A:7	116.52	.	voice	1A 1cc# 1ee 1gg#
=61	=61	=61	=61	=61	=61
1I	E:maj	118.49	.	voice	1E 1g# 1b
=62	=62	=62	=62	=62	=62
1I	E:maj	120.46	.	voice	1E 1g# 1b
=63	=63	=63	=63	=63	=63
*>A_theme	*>A_theme	*>A_theme	*>A_theme	*>A_theme	*>A_theme
1I	E:maj	122.43	newline	voice	1E 1g# 1b
=64	=64	=64	=64	=64	=64
1I	E:maj	124.408	.	voice	1E 1g# 1b
=65	=65	=65	=65	=65	=65
1I	E:maj	126.386	.	voice	1E 1g# 1b
=66	=66	=66	=66	=66	=66
1I	E:maj	128.364	.	voice	1E 1g# 1b
=67	=67	=67	=67	=67	=67
1IVm7	A:7	130.342	newline	voice	1A 1cc# 1ee 1gg#
=68	=68	=68	=68	=68	=68
1IVm7	A:7	132.296	.	voice	1A 1cc# 1ee 1gg#
=69	=69	=69	=69	=69	=69
1I	E:maj	134.25	.	voice	1E 1g# 1b
=70	=70	=70	=70	=70	=70
1I	E:maj	136.204	.	voice	1E 1g# 1b
=71	=71	=71	=71	=71	=71
1V7	B:7	138.158	newline	voice	1B 1dd# 1ff# 1aa
=72	=72	=72	=72	=72	=72
1IVm7	A:7	140.108	.	voice	1A 1cc# 1ee 1gg#
=73	=73	=73	=73	=73	=73
1I	E:maj	142.058	.	voice	1E 1g# 1b
=74	=74	=74	=74	=74	=74
1I	E:maj	144.008	.	voice	1E 1g# 1b
=75	=75	=75	=75	=75	=75
*>A_outro_fadeout	*>A_outro_fadeout	*>A_outro_fadeout	*>A_outro_fadeout	*>A_outro_fadeout	*>A_outro_fadeout
1I	E:maj	145.958	newline	voice	1E 1g# 1b
=76	=76	=76	=76	=76	=76
1I	E:maj	147.858	.	voice	1E 1g# 1b
=77	=77	=77	=77	=77	=77
1I	E:maj	149.758	.	voice	1E 1g# 1b
=78	=78	=78	=78	=78	=78
1I	E:maj	151.658	.	voice	1E 1g# 1b
1r;	N	153.558	.	r	1r;
1r;	N	156.739	.	r	1r;
*-	*-	*-	*-	*-	*-
!!!OTL: Ruby Baby
!!!COC: Dion
!!!BillboardChartDate: 1963/02/09
!!!BillboardPeak: 2
!!!BillboardWeeksOnChart: 13
!!!SampleTargetRank: 6
!!!SampleActualRank: 7
!!!SampleID#: 0439
!!!RDF**harmony: **recip + pitch class of root + harmonic quality
!!!RDF**harte: Chris Harte's syntax, used by MIREX
!!!RDF**phrase: newline = linebreak in original McGill transcription
!!!RDF**timestamp: McGill audio timestamp in seconds
!!!RDF**leadinstrument: original McGill primary instrumentation annotation
!!!RDT: 2017/01/12/
!!!ENC: Nathaniel Condit-Schultz
!!!EST: Awating manual error checking and editing.
